X: 4093
T: Miss Heron of Heron's Reel
C: By Nath.Gow
%R: reel
B: Niel Gow & Sons "A rFourth Collection of Strathspey Reels, etc." v.4 p.9 #3
Z: 2022 John Chambers <jc:trillian.mit.edu>
M: C
L: 1/8
K: F
% - - - - - - - - - -
V: 1 staves=2
f |\
cFAF EG-G>B | (A/B/c) .f.c Td3 f | cfcA BGEc | AFEC F3 :| f | (a/g/f/)e/ fd Te>fgb | afcA Td3f |
cAfF EG-GB AFEC ~F3 f || (a/g/f/)e/ fd ~e>fgb | (a/g/f/)e/ fc ~d3 f | cacA BGEc | AFEC F3 :|
% - - - - - - - - - -
% Voice 2 preserves the staff layout in the book.
V: 2 clef=bass middle=d
z |\
f2f2 c'2c2 | f2A2 B2b2 | a2f2 g2c2 | f2c2 F3 :| z | F2f2 c2e2 | f2a2 b2B2 |
A2F2 c2e2 | f2c2 F3z || f2B2 c2e2 | f2A2 B2b2 | a2f2 g2c2 | f2c2 F3 |]
